!!!COM: Scarlatti, Domenico
!!!CDT: 1685///-1757///
!!!OTL: Sonata in E-flat Major, K.306, L.16
!!!SCT: K. 306
!!!SCT: L. 016
**kern	**kern	**dynam
*staff2	*staff1	*staff1/2
*Icemba	*Icemba	*Icemba
*>[A,A,B,B]	*>[A,A,B,B]	*>[A,A,B,B]
*>norep[A,B]	*>norep[A,B]	*>norep[A,B]
*>A	*>A	*>A
*clefG2	*clefG2	*clefG2
*k[b-e-a-]	*k[b-e-a-]	*k[b-e-a-]
*E-:	*E-:	*E-:
*M2/2	*M2/2	*M2/2
*MM208	*MM208	*MM208
=1-	=1-	=1-
2.e-/ 2.g/	(4.ee-\	mf
.	16dd\LL	.
.	16cc\JJ	.
.	[2b-\	.
4f/ 4a-/	.	.
=2	=2	=2
4g/ 4b-/	8b-\L]	p
.	8gg\)	.
4a-/ 4cc/	(8gg\	.
.	8ff\J)	.
4g/ 4b-/	(8ff\L	.
.	8ee-\)	.
4f/ 4a-/	(8ee-\	.
.	8dd\J	<
=3	=3	=3
4g/ 4b-/	8ee-\L	.
.	8gg\)	.
4a-/ 4cc/	(8gg\	.
.	8ff\J)	.
4g/ 4b-/	(8ff\L	.
.	8ee-\)	.
4f/ 4a-/	(8ee-\	.
.	8dd\J	.
=4	=4	=4
2g/ 2b-/	8ee-\L	.
.	8bb-\)	.
.	8bb-\	.
.	8gg\J	.
4r	(8gg\L	.
.	8ee-\)	.
*clefF4	*	*
(4G\	(8ee-\	.
.	8cc\J)	.
=5	=5	=5
2A-\	8cc/L	.
.	8a-/	.
.	8a-/	.
.	8f/J	.
2B-\	8f/L	.
.	8b-/	.
.	8b-/	.
.	8a-/J	.
=6	=6	=6
8E-\L	2g/	mf
8e-\)	.	.
(8e-\	.	.
8d\J)	.	.
(8d\L	4r	.
8c\)	.	.
(8c\	4ee-\	.
8B-\J)	.	.
=7	=7	=7
(8B-\L	4dd\	.
8A-\)	.	.
(8A-\	4cc\	.
8G\J)	.	.
(8G\L	4b-\	.
8F\)	.	.
(8F\	4a-\	.
8E-\J)	.	.
=8	=8	=8
8E-\L	2g/	.
8e-\	.	.
8e-\	.	.
8d\J	.	.
8d\L	4r	.
8c\	.	.
8c\	(4ee-\	.
8B-\J	.	.
=9	=9	=9
8B-\L	4dd\	<
8A-\	.	.
8A-\	4cc\	.
8G\J	.	.
8G\L	4b-\	.
8F\	.	.
8F\	4a-\	.
8E-\J	.	.
=10	=10	=10
(2.E-\	8g\L	.
.	8gg\)	.
.	(8gg\	.
.	8ff\J)	.
.	(8ff\L	.
.	8ee-\)	.
4F\	(8ee-\	.
.	8dd\J)	.
=11	=11	=11
2G\	8dd\L	.
.	8cc\	.
.	8cc\	.
.	8b-\J	.
2E-\)	4.b-\	.
.	16an/LL	.
.	16b-/JJ	.
=12	=12	=12
8F\L	2an/	mf
8f\	.	.
8f\	.	.
8e-\J	.	.
8e-\L	4r	.
8d\	.	.
8d\	(4b-\	.
8c\J	.	.
=13	=13	=13
8c\L	4an\	.
8B-\	.	.
8B-\	4b-\	.
8An\J	.	.
8A\L	4cc\	.
8G\	.	.
8G\	4dd\	.
8F\J	.	.
=14	=14	=14
8F'\L	4ee-\)	.
8F'\	.	.
8B-'\	(4dd\	.
8B-'\J	.	.
8E-'\L	4gg\	.
8E-'\	.	.
8An'\	4cc\	.
8A'\J	.	.
=15	=15	=15
8D'\L	4ff\	.
8D'\	.	.
8G'\	4b-\	.
8G'\J	.	.
.	(ffq/)	.
8C'\L	4ee-\)	.
8C'\	.	.
8F'\	8dd\L	.
8F'\J	8cc\J	.
=16	=16	=16
(2BB-/	8dd\L	.
.	8cc\	.
.	(8cc\	.
.	8b-\J)	.
2B-\	(8b-/L	.
.	8an/)	.
.	(8a/	.
.	8g/J)	.
=17	=17	=17
2C\	8g/L	.
.	8f/	.
.	8f/	.
.	8en/J	.
4c\	8e/L	.
.	8g/	.
4B-\	8g/	.
.	8f#/J	.
=18	=18	=18
4An\)	8f#/L	<
.	8an/	.
(4c\	8a/	.
.	8g/J	.
4B-\	8g/L	.
.	8b-/	.
4G\	8b-/	.
.	8a/J	.
=19	=19	=19
*^	*	*
2r	4F#\	8an\L	.
.	.	8cc\	.
.	4D\)	8cc\	.
.	.	8b-\J	.
(4g/	2G\	8b-\L	.
.	.	8dd\	.
4fn/	.	8dd\	.
.	.	8cc#\J	.
*v	*v	*	*
=20	=20	=20
4An\ 4en\)	8cc#\L	.
.	8een\	.
(4g\	8ee\	.
.	8dd\J	.
4f\	8dd\L	.
.	8ff\	.
4d\	8ff\	.
.	8ee\J	.
=21	=21	=21
4c#\	8een\L	.
.	8gg\	.
4An\	8gg\	.
.	8ff\J	.
2d\)	8ff\L	.
.	8aan\	.
.	8aa\	.
.	8gg\J	.
=22	=22	=22
(4D\	(8gg\L	f
.	8ff\)	.
4En\	(8ff\	.
.	8een\J)	.
4F\)	(8ee\L	.
.	8dd\)	.
(4f\	(8dd\	.
.	8ccn\J)	.
=23	=23	=23
4G\	4.b-\	.
4g\	.	.
.	16an/LL	.
.	16b-/JJ	.
8An\L	8a'/	p
8an\)	8r	.
(8a\	4r	.
8g\J)	.	.
=24	=24	=24
8g\L	4r	.
8f\	.	.
8f\	(4b-\	.
8en\J	.	.
8e\L	4cc\	.
8d\	.	.
8d\	4dd\	.
8c\J	.	.
=25	=25	=25
8c\L	4een\	.
8B-\	.	.
8B-\	4ff\	.
8An\J	.	.
8A'\L	4gg\)	.
8A'\	.	.
8d'\	(4ff\	.
8d'\J	.	.
=26	=26	=26
8G'\L	4bb-\	.
8G'\	.	.
8c'\	4een\	.
8c'\J	.	.
8F'\L	4aan\	.
8F'\	.	.
8B-'\	4dd\)	.
8B-'\J	.	.
=27	=27	=27
.	(aanq/	.
8En'\L	4gg\)	.
8E'\	.	.
8An'\	8ff\L	.
8A'\J	8een\J	.
4D'\	8ff/L	.
.	8f'/	mf
([4d\	8f'/	.
.	8f'/J	.
=28	=28	=28
4d\]	8en'/L	.
.	8e'/	.
4c\	8an'/	.
.	8a'/J	.
8B-\L)	4dd\	.
8B-'\	.	.
8g'\	4b-\	.
8g'\J	.	.
=29	=29	=29
8An'\L	4cc\	.
8A'\	.	.
8f'\	4an\	.
8f'\J	.	.
.	(ccq/	.
8G'\L	(4b-\)	.
8G'\	.	.
8en'\	8a/L	.
8e'\J	8g/J	.
=30	=30	=30
4F'\	8an'/L)	.
.	8a'/	.
(2f\	8a'/	.
.	8a'/J	.
.	8g'/L	.
.	8g'/	.
4e-\	8cc'/	.
.	8cc'/J	.
=31	=31	=31
8d\L)	4ff\	.
8d'\	.	.
8g'\	4dd\	.
8g'\J	.	.
.	ffq/	.
8c'\L	4ee-\	.
8c'\	.	.
8f'\	8dd\L	.
8f'\J	8cc\J	.
=32	=32	=32
4B-'\	8dd\L	<
.	8ff\	.
4d\	(8ff\	.
.	8b-\J	.
.	ccq/)	.
4c\	(8b-\L	.
.	8an\)	.
4B-\	(8a\	.
.	8b-\J	.
=33	=33	=33
4F\	8cc\L	.
.	8ff\)	.
4d\	(8ff\	.
.	[8b-\J	.
.	ccq/)	.
4c\	(8b-\L]	.
.	8an\)	.
4B-\	(8a\	.
.	8b-\J	.
=34	=34	=34
4F\ 4f\	8cc\L	.
.	[8ff\	.
.	ggq/)	.
4F\ 4f\	(8ff\]	.
.	(8een\J)	.
4G\ 4B-\ 4en\	8ee\L	.
.	8ff\	.
.	(ggq/)	.
4G\ 4B-\ 4e\	(8ff\)	.
.	8ee\J)	.
=35	=35	=35
4An\ 4c\ 4f\	(8een\L	.
.	8ff\	.
.	(ggq/)	.
4A\ 4c\ 4f\	(8ff\)	.
.	(8ee\J)	.
4G\ 4B-\ 4en\	8ee\L	.
.	8ff\	.
.	(ggq/)	.
4G\ 4B-\ 4e\	(8ff\)	.
.	8ee\J)	.
=36	=36	=36
.	(eenq/	.
2.FF;/ 2.F;/	2.ff;\)	f
4r	4r	.
*clefG2	*	*
=37	=37	=37
*	*^	*
2f/	2r	8r	.
.	.	8cc'\L	p
.	.	8cc'\	.
.	.	8cc'\J	.
2f/	8r	8dd-'\	.
.	8b-/L	(4b-\	.
.	8een/	.	.
.	8cc/J	8g\	.
=38	=38	=38	=38
2f/	8ff/	8an'\)	.
.	2r	8cc'\L	.
.	.	8cc'\	.
.	.	8cc'\J	.
2f/	.	(8dd-'\	.
.	8b-/L	4b-\	.
.	8een/	.	.
.	8cc/J	8g\	.
=39	=39	=39	=39
8f'/L	4ff/	8an\)	.
8an'/	.	8r	.
8a'/	(4cc/	4r	.
8a'/J	.	.	.
8b-'/L	4dd-/	4r	.
8b-'/	.	.	.
8g-'/	4ee-/	4b-\	.
8g-'/J	.	.	.
=40	=40	=40	=40
8f'/L	4ff/)	8an'\	.
8f'/	.	8r	.
8an'/	(4cc/	4r	.
8a'/J	.	.	.
8b-'/L	4dd-/	4r	.
8b-'/	.	.	.
8g-'/	4ee-/	4b-\	.
8g-'/J	.	.	.
=41	=41	=41	=41
8f'/L	4ff/)	4an\	.
8f'/	.	.	.
8f'/	2.r	(4a\	.
8f'/J	.	.	.
8g-'/L	.	4b-\	.
8g-'/	.	.	.
8e-'/	.	4gg-\	.
8e-'/J	.	.	.
*	*v	*v	*
=42	=42	=42
8f'/L	4ff\)	.
8f'/J	.	.
*clefF4	*	*
8c'\L	(4an\	.
8c'\J	.	.
8d-'\L	4b-\	.
8d-'\J	.	.
8An'\L	4cc\	.
8A'\J	.	.
=43	=43	=43
8B-'\L	4dd-\)	.
8B-'\	.	.
8F'\	(4an\	.
8F'\J	.	.
8G-'\L	4b-\	.
8G-'\	.	.
8E-'\	4gg-\	.
8E-'\J	.	.
=44	=44	=44
8F'\L	4ff\)	.
8F'\	.	.
8C'\	(4an\	.
8C'\J	.	.
8D-'/L	4b-\	.
8D-'/	.	.
8AAn'/	4cc\	.
8AA'/J	.	.
=45	=45	=45
4BB-'/	8dd-\L)	.
.	(8ff\	.
4E-\	8ee-\	.
.	8cc\J	.
4F\	8dd-\L	.
.	8b-\	.
4G-\	8an\	.
.	8b-\J	.
=46	=46	=46
8F\L	4cc\)	f
8f'\	.	.
8f'\	(4an\	p
8f'\J	.	.
8g-'\L	4b-\	.
8g-'\	.	.
8e-'\	4gg-\	.
8e-'\J	.	.
=47	=47	=47
8f'\L	4ff\)	<
8f'\	.	.
8c'\	(4an\	.
8c'\J	.	.
8d-'\L	4b-\	.
8d-\	.	.
8An'\	4cc\	.
8A'\J	.	.
=48	=48	=48
8B-'\L	4dd-\)	.
8B-'\	.	.
8F'\	(4an\	.
8F'\J	.	.
8G-'\L	4b-\	.
8G-'\	.	.
8E-'\	4gg-\	.
8E-'\J	.	.
=49	=49	=49
8F'\L	4ff\)	.
8F'\	.	.
8C'\	(4an\	.
8C'\J	.	.
8D-'/L	4b-\	.
8D-'/	.	.
8AAn'/	4cc\	.
8AA'/J	.	.
=50	=50	=50
4BB-'/	8dd-\L)	.
.	(8ff\	.
4E-\	8cc\	.
.	8ee-\J	.
4F\	8b-\L	.
.	8dd-\	.
4FF/	8an\	.
.	8cc\J	.
=51	=51	=51
(2.BB-/	8b-\L	f
.	8ff\)	.
.	(8ff\	.
.	8ee-\J	.
.	(8ee-\L)	.
.	8ddn\	.
4C/	(8dd\)	.
.	8cc\J)	.
=52	=52	=52
2D\	8cc\L	.
.	8b-\	.
.	8b-\	.
.	8an\J	.
2E-\	8a/L	.
.	8g/	.
.	8g/	.
.	8f/J	.
=53	=53	=53
2.F\)	8f\L	.
.	8gg\	.
.	8gg\	.
.	8ff\J	.
.	8ff\L	.
.	8ee-\	.
(4An\	8ee-\	.
.	8dd\J	.
=54	=54	=54
4B-\)	8dd'\L	.
.	8ff\	.
(4E-\	8cc\	.
.	8ee-\J	.
4F\	8b-\L	.
.	8dd\	.
4FF/)	8an\	.
.	8cc\J	.
=55	=55	=55
(2.BB-/	8b-\L	f
.	8ff\	.
.	(8ff\	p
.	8ee-\J)	.
.	(8ee-\L	.
.	8dd\)	.
4C/	(8dd\	.
.	8cc\J)	.
=56	=56	=56
2D\	8cc\L	.
.	8b-\	.
.	8b-\	.
.	8an\J	.
2E-\	8a/L	.
.	8g/	.
.	8g/	.
.	8f/J	.
=57	=57	=57
2.F\)	8f\L	.
.	8gg\	.
.	8gg\	.
.	8ff\J	.
.	8ff\L	.
.	8ee-\	.
(4An\	8ee-\	.
.	8dd\J	.
=58	=58	=58
4B-\)	8dd'\L	.
.	8ff\	.
(4E-\	8cc\	.
.	8ee-\J	.
4F\	8b-\L	.
.	8dd\	.
4FF/)	8an\	.
.	8cc\J	.
=59	=59	=59
8B-\L	4b-'\	f
8f\	.	.
8d\	([4bb-\	.
8B-\J	.	.
4An'\	8bb-\L]	.
.	8ccc\	.
4F'\	8cc\	.
.	8ee-\J	.
=60	=60	=60
8B-\L	4dd'\)	f
8f\	.	.
8d\	([4bb-\	p
8B-\J	.	.
4An'\	8bb-\L]	.
.	8ccc\	.
4F'\	8cc\	.
.	8ee-\J	<
=61	=61	=61
4B-'\	8dd\L)	.
.	(8bb-\	.
4E-\	8gg\	.
.	8ee-\J	.
4F\	8dd\L	.
.	8ff\	.
4FF/	8an\	.
.	8cc\J	.
=62	=62	=62
4G'\	8b-\L)	.
.	(8dd\	.
4E-\	8g\	.
.	8b-\J	.
4F\	8e-/L	.
.	8b-/	.
4FF/	8c/	.
.	8an/J	.
=63	=63	=63
.	(anq/)	.
2.BB-\ 2.B-\	2.b-\)	f
4r	4r	.
=64:|!|:	=64:|!|:	=64:|!|:
*>B	*>B	*>B
.	(ccq/	.
*	*^	*
8r	2.bn/)	(1f	.
8A-'\L	.	.	.
8A-'\	.	.	.
8A-'\J	.	.	.
8A-'\L	.	.	.
8A-'\	.	.	.
8A-'\	4cc/	.	.
8A-'\J	.	.	.
=65	=65	=65	=65
8G'\L	4dd/	2g\	.
8G'\	.	.	.
8G'\	2bn/	.	.
8G'\J	.	.	.
8A-'\L	.	2f\	<
8A-'\	.	.	.
8A-'\	4cc/	.	.
8A-'\J	.	.	.
=66	=66	=66	=66
8G'\L	4dd/	2g\	.
8G'\	.	.	.
8G'\	2bn/	.	.
8G'\J	.	.	.
8A-'\L	.	2f\)	.
8A-'\	.	.	.
8A-'\	4cc/	.	.
8A-'\J	.	.	.
*	*v	*v	*
=67	=67	=67
8G'\L	4dd\	.
8G'\	.	.
8c'\	(4ee-\	.
8c'\J	.	.
8F'\L	4aa-\	.
8F'\	.	.
8B-'\	4dd\	.
8B-'\J	.	.
=68	=68	=68
8E-'\L	4gg\	.
8E-'\	.	.
8A-'\	4cc\)	.
8A-'\J	.	.
.	(ggq/	.
8D'\L	(4ff\)	.
8D'\	.	.
8G'\	8ee-\L	.
8G'\J	8dd\J	.
=69	=69	=69
(2c\	8ee-\L	.
.	8gg\)	.
.	(8gg\	.
.	8ff\J)	.
4C\	(8ff\L	.
.	8ee-\)	.
4D\	(8ee-\	.
.	8dd\J)	.
=70	=70	=70
2E-\	8dd\L	.
.	8cc\	.
.	8cc\	.
.	8b-\J	.
2C/)	8b-/L	.
.	8an/	.
.	8a/	.
.	8g/J	.
=71	=71	=71
8D\L	2f#/	<
8d\	.	.
8d\	.	.
8c\J	.	.
8c\L	4r	.
8B-\	.	.
8B-\	(4g/	.
8An\J	.	.
=72	=72	=72
8An\L	4f#/	.
8G\	.	.
8G\	4g/	.
8F#\J	.	.
8F#\L	4an/	.
8En\	.	.
8E\	4b-/	.
8D\J	.	.
=73	=73	=73
8D'\L	4cc\)	.
8D'\	.	.
8G'\	(4b-\	.
8G'\J	.	.
8C'\L	4ee-\	.
8C'\	.	.
8Fn'\	4an\	.
8F'\J	.	.
=74	=74	=74
8BB-'/L	4dd\	.
8BB-'/	.	.
8E-'/	4g/	.
8E-'/J	.	.
.	(ddq/)	.
8AAn'/L	4cc\)	.
8AA'/	.	.
8D'/	8b-\L	.
8D'/J	8an\J	.
=75	=75	=75
4GG'/	8b-\	mf
.	8b-'\L	.
(2g\	8b-'\	.
.	8b-'\J	.
.	8an'\L	.
.	8a'\	.
[4f\	8dd'\	.
.	8dd'\J	.
=76	=76	=76
4f\]	8g'/L	.
.	8g'/	.
4e-\	8cc'/	.
.	8cc'/J	.
8d\L)	4ff\	.
8d'\	.	.
8g'\	4dd\	.
8g'\J	.	.
=77	=77	=77
.	(ffq/	.
8c'\L	4ee-\	.
8c'\	.	.
8f'\	8dd\L	.
8f'\J	8cc\J	.
4B-'\	8dd\)	.
.	8dd\L	.
*clefG2	*	*
([4b-\	8dd'\	p
.	8dd'\J	.
=78	=78	=78
4b-\]	8cc'\L	.
.	8cc'\	.
4a-\	8ff'\	.
.	8ff'\J	.
8g\L)	4bb-\	.
8g'\	.	.
8cc'\	4ee-\	.
8cc'\J	.	.
=79	=79	=79
.	(bb-q/	.
8f'/L	4aa-\)	.
8f'/	.	.
8b-'/	8gg\L	.
8b-'/J	8ff\J	.
4e-'/	8gg\L	.
.	8bb-\	.
(4g/	(8bb-\	.
.	8ee-\J)	.
=80	=80	=80
.	ffq/	.
4f/	8ee-\L	<
.	8dd\	.
4e-/	8dd\	.
.	8ee-\J	.
4B-/)	8ff\L	.
.	8bb-\	.
(4g/	8bb-\	.
.	8ee-\J	.
=81	=81	=81
.	ffq/	.
4f/	8ee-\L	.
.	8dd\	.
4e-/	8dd\	.
.	8ee-\J	.
4d/) 4b-/	8ff\L	.
.	8bb-\	.
.	cccq/	.
4d/ 4b-/	8bb-\	.
.	8aan\J	.
=82	=82	=82
4c/ 4e-/ 4an/	(8aan\L	.
.	[8bb-\)	.
.	cccq/	.
4c/ 4e-/ 4a/	(8bb-\]	.
.	8aa\J	.
4d/ 4f/ 4b-/	(8aa\L)	.
.	8bb-\)	.
.	(cccq/	.
4d/ 4f/ 4b-/	(8bb-\)	.
.	8aa\J)	.
=83	=83	=83
4c/ 4e-/ 4an/	(8aan\L	.
.	[8bb-\	.
.	cccq/)	.
4c/ 4e-/ 4a/	(8bb-\]	.
.	8aa\J	.
.	(aaq/)	.
4d/ 4b-/	2bb-;\)	f
4r;	.	.
=84	=84	=84
*	*^	*
2b-\	2r	8r	.
.	.	8ff'\L	p
.	.	8ff'\	.
.	.	8ff'\J	.
2b-\	8r	8gg-'\	.
.	(8ee-/L	4ee-\	.
.	8aan/	.	.
.	8ff/J	8cc\	.
=85	=85	=85	=85
2b-\	8bb-'/	8dd\)	.
.	2r	8ff'\L	.
.	.	8ff'\	.
.	.	8ff'\J	.
2b-\	.	8gg-'\	.
.	(8ee-/L	4ee-\	.
.	8aan/	.	.
.	8ff/J	8cc\	.
=86	=86	=86	=86
8b-'\L	4bb-/)	8dd\	<
8dd'\	.	8r	.
8dd'\	(4ff/	4r	.
8dd'\J	.	.	.
8ee-'\L	4gg-/	4r	.
8ee-'\	.	.	.
8cc-'\	4aa-/	4ee-\	.
8cc-'\J	.	.	.
=87	=87	=87	=87
8b-'\L	4bb-/)	8dd\	.
8b-'\	.	8r	.
8dd'\	(4ff/	4r	.
8dd'\J	.	.	.
8ee-'\L	4gg-/	4r	.
8ee-'\	.	.	.
8cc-'\	4aa-/	4ee-\	.
8cc-'\J	.	.	.
=88	=88	=88	=88
8b-'\L	4bb-/)	4dd\	.
8b-'\	.	.	.
8b-'\	2.r	(4dd\	.
8b-'\J	.	.	.
8cc-'\L	.	4ee-\	.
8cc-'\	.	.	.
8a-'\	.	4ccc-\	.
8a-'\J	.	.	.
*	*v	*v	*
=89	=89	=89
8b-'/L	4bb-\)	.
8b-'/	.	.
8f'/	(4dd\	.
8f'/J	.	.
8g-'/L	4ee-\	.
8g-'/	.	.
8d'/	4ff\	.
8d'/J	.	.
=90	=90	=90
8e-'/L	4gg-\)	.
8e-'/J	.	.
*clefF4	*	*
8B-'\L	(4dd\	.
8B-'\J	.	.
8c-'\L	4ee-\	.
8c-'\	.	.
8A-'\	4ccc-\	.
8A-'\J	.	.
=91	=91	=91
8B-'\L	4bb-\)	.
8B-'\	.	.
8F'\	(4dd\	.
8F'\J	.	.
8G-'\L	4ee-\	.
8G-'\	.	.
8D'\	4ff\	.
8D'\J	.	.
=92	=92	=92
4E-'\	8gg-\L)	.
.	(8bb-\	.
4A-\	8aa-\	.
.	8ff\J	.
4B-\	8gg-\L	.
.	8ee-\	.
4c-\	8dd\	.
.	8ee-\J	.
=93	=93	=93
8B-\	4ff\)	f
*clefG2	*	*
8b-'\L	.	.
8b-'\	(4dd\	p
8b-'\J	.	.
8cc-'\L	4ee-\	.
8cc-'\	.	.
8a-'\	4ccc-\	.
8a-'\J	.	.
=94	=94	=94
8b-'/L	4bb-\)	.
8b-'/	.	.
8f'/	(4dd\	.
8f'/J	.	.
8g-'/L	4ee-\	.
8g-'/	.	.
8d'/	4ff\	.
8d'/J	.	.
=95	=95	=95
8e-'/L	4gg-\)	.
8e-'/J	.	.
*clefF4	*	*
8B-'\L	(4dd\	.
8B-'\J	.	.
8c-'\L	4ee-\	.
8c-'\	.	.
8A-'\	4ccc-\	.
8A-'\J	.	.
=96	=96	=96
8B-'\L	4bb-\)	.
8B-'\	.	.
8F'\	(4dd\	.
8F'\J	.	.
8G-'\L	4ee-\	.
8G-'\	.	.
8D'\	4ff\	.
8D'\J	.	.
=97	=97	=97
4E-'\	8gg-\L)	.
.	(8bb-\	.
4A-\	8ff\	.
.	8aa-\J	.
4B-\	8ee-\L	.
.	8gg-\	.
4BB-/	8dd\	.
.	8ff\J	.
=98	=98	=98
(2.E-\	8ee-\L	f
.	8bb-\)	.
.	(8bb-\	.
.	8aa-\J)	.
.	(8aa-\L	.
.	8ggn\)	.
4F\	(8gg\	.
.	8ff\J)	.
=99	=99	=99
2G\	8ff\L	.
.	8ee-\	.
.	8ee-\	.
.	8dd\J	.
2A-\	8dd\L	.
.	8cc\	.
.	8cc\	.
.	8b-\J	.
=100	=100	=100
2.B-\)	8b-\L	.
.	8ccc\	.
.	8ccc\	.
.	8bb-\J	.
.	8bb-\L	.
.	8aa-\	.
(4d\	8aa-\	.
.	8gg\J	.
=101	=101	=101
4e-\)	8gg'\L	.
.	8bb-\	.
(4A-\	8ff\	.
.	8aa-\J	.
4B-\	8ee-\L	.
.	8gg\	.
4BB-/)	8dd\	.
.	8ff\J	.
=102	=102	=102
(2.E-\	8ee-\L	f
.	8bb-\	.
.	(8bb-\	p
.	8aa-\J)	.
.	(8aa-\L	.
.	8gg\)	.
4F\	(8gg\	.
.	8ff\J)	.
=103	=103	=103
2G\	8ff\L	.
.	8ee-\	.
.	8ee-\	.
.	8dd\J	.
2A-\	8dd\L	.
.	8cc\	.
.	8cc\	.
.	8b-\J	.
=104	=104	=104
2.B-\)	8b-\L	.
.	8ccc\	.
.	8ccc\	.
.	8bb-\J	.
.	8bb-\L	.
.	8aa-\	.
(4d\	8aa-\	.
.	8gg\J	.
=105	=105	=105
4e-\)	8gg'\L	.
.	8bb-\	.
(4A-\	8ff\	.
.	8aa-\J	.
4B-\	8ee-\L	.
.	8gg\	.
4BB-/	8dd\	.
.	8ff\J	.
=106	=106	=106
8E-'\L)	[2ee-\	f
(8e-\	.	.
8g\	.	.
8e-\J	.	.
4d'\)	8ee-\L]	.
.	8ff\	.
4B-'\	8f\	.
.	8a-\J	.
=107	=107	=107
8E-'\L	4g'/	f
8e-\	.	.
8g\	([4ee-\	p
8e-\J	.	.
4d'\	8ee-\L]	.
.	8ff\	.
4B-'\	8f\	.
.	8a-\J	.
=108	=108	=108
4e-'\	8g\L)	<
.	8ee-\	.
4A-\	(8cc\	.
.	8a-\J	.
4B-\	8g\L	.
.	8ee-\	.
4BB-'/	8f\	.
.	8dd\J	.
=109	=109	=109
4c'\	8g\L)	.
.	(8ee-\	.
(4A-\	8cc\	.
.	8a-\J	.
4B-\)	8g\L	.
.	8ee-\	.
4BB-'/	8f\	.
.	8dd\J)	.
=110	=110	=110
.	(ddq/	.
2.EE-/ 2.E-/	2.ee-\)	f
4r	4r	.
==:|!	=:|!	==:|!
*-	*-	*-
!!!ENC: Kelly Leistikow
!!!END: 2005/08/07/
!!!ONB: Translated to Humdrum by Craig Stuart Sapp 2005/08/07
